X:1
T:Title
%%score { ( 1 3 4 ) | ( 2 5 ) }
L:1/8
M:6/4
K:Bb
V:1 treble nm="Grand Piano"
V:3 treble 
V:4 treble 
V:2 bass 
V:5 bass 
V:1
 z6 z4[Q:1/4=108] F2 | z2 .d4 z6 | z2 G2 G2 z2 F2 F2 | z2 .F4 z6 |[M:5/4] z2 F2 B2 d2 B2 | %5
[M:1/4][K:bass] F,2 |[M:6/4] z2[K:treble] .G4 z6 | z2 F2 F2 z2 B2 c2 | D2 B2 B2 C2 [EFA]2 [EFA]2 | %9
[M:5/4] [B,DB]2- [B,DB]2- [B,DB]6 |[M:1/4] B2 |[M:6/4] z2 .B4 z6 | E2 B2 B2 D2 B2 B2 | z2 .B4 z6 | %14
[M:5/4] [CFA]2- [CFA]2- [CFA]6 |[M:1/4] F2 |[M:6/4] z2 .B4 z6 | E2 B2 B2 z2 B2 B2 | %18
 F,2 B2 B2 .D2 A2 A2 |[M:5/4] [B,DFB]2- [B,DFB]2- [B,DFB]6 |] %20
V:2
 z6 z4 F,2 | z2[K:treble] [FB]2 [DFB]2[K:bass] z2 =E,2 [F,DF]2 | %2
 z2 [B,E]2 [B,E]2 z2 [CD]2 [F,B,D]2 | z2 [B,D]2 [F,B,D]2 z2 [F,A,CE]2 [E,A,CE]2 | %4
[M:5/4] z2 [B,D]2 [DF]2[K:treble] [FB]2 [DF]2 |[M:1/4] z2 | %6
[M:6/4][K:bass] z2 [B,E]2 [B,E]2 z2 [B,E]2 [G,B,E]2 | z2 [B,D]2 [B,D]2 z2[K:treble] [DF]2 [CEF]2 | %8
 z2[K:treble] [DEF]2 [DF]2[K:bass] z2 D2 C2 |[M:5/4] B,,2 F,2 D,2 B,,4 |[M:1/4] [B,DF_A]2 | %11
[M:6/4] z2[K:treble] .[EG]2 [EG]2[K:bass] z2[K:treble] [EFG]2 [EG]2 | %12
 z2[K:treble] [EG]2 [E^F]2[K:bass] z2[K:treble] [D=F]2 [DF]2 | %13
 z2[K:treble] [=EG]2 [B,EG]2[K:bass] z2 A,2 B,2 |[M:5/4] F,2 C,2 A,,2 F,,4 |[M:1/4] F,2 | %16
[M:6/4] z2[K:treble] [DF]2 D2[K:bass] z2 [CE]2 [DF_A]2 | %17
 z2[K:treble] [EG]2 [EG]2[K:bass] z2 [EG]2 [=E,,=E,G,_DG]2 | %18
 z2[K:treble] [DF]2 [EG]2[K:bass] z2[K:treble] [EF]2 [CEF]2 |[M:5/4][K:bass] B,,2 F,2 D,2 B,,4 |] %20
V:3
 x12 | z2 z _D d2 F,2 [DGB]2 B2 | G,6 .F,6 | z2 z G, F2 E,2 F2 F2 |[M:5/4] D,2- D,2- D,6 | %5
[M:1/4][K:bass] x2 |[M:6/4] .B,3[K:treble] A, G2 C2 G2 G2 | F,6 .B,6 | x12 |[M:5/4] x10 | %10
[M:1/4] x2 |[M:6/4] .E3 E B2 E2 B2 B2 | x12 | z2 z C B2 G,2 [C=EGB]2 [CEGB]2 |[M:5/4] x10 | %15
[M:1/4] x2 |[M:6/4] .D3 _D [FB]2 [B,=DFB]2 A2 B2 | z6 .G,6 | z6 z D3 z2 |[M:5/4] x10 |] %20
V:4
 x12 | .D6 z6 | x12 | .F,6 z6 |[M:5/4] x10 |[M:1/4][K:bass] x2 |[M:6/4] x2[K:treble] x10 | x12 | %8
 x12 |[M:5/4] x10 |[M:1/4] x2 |[M:6/4] x12 | x12 | .D6 z6 |[M:5/4] x10 |[M:1/4] x2 |[M:6/4] x12 | %17
 x12 | x12 |[M:5/4] x10 |] %20
V:5
 x12 | B,,6[K:treble][K:bass] B,,6 | [E,,E,]6 B,,6 | F,,6 .F,,6 | %4
[M:5/4] B,,2- B,,2- B,,6[K:treble] |[M:1/4] x2 |[M:6/4][K:bass] E,,6 [E,,D,]6 | %7
 B,,6 B,,6[K:treble] | [F,,F,]6[K:treble][K:bass] F,,6 |[M:5/4] x10 |[M:1/4] x2 | %11
[M:6/4] [E,,E,]6[K:treble][K:bass] [E,,E,]6[K:treble] | B,,6[K:treble][K:bass] B,,6[K:treble] | %13
 C,6[K:treble][K:bass] C,6 |[M:5/4] x10 |[M:1/4] x2 |[M:6/4] B,,6[K:treble][K:bass] B,,6 | %17
 [E,,E,]6[K:treble][K:bass] .[E,,E,]6 | F,,6[K:treble][K:bass] F,,6[K:treble] | %19
[M:5/4][K:bass] x10 |] %20

